lib/brands/icons/stark.svg

<svg xmlns="http://www.w3.org/2000/svg" fill="none" aria-hidden="true" viewBox="0 0 48 48"><g id="stark-Icon"><g id="Group"><path id="Vector" fill="#10284B" d="M42 24C42 14.0589 33.9411 6 24 6C14.0589 6 6 14.0589 6 24C6 33.9411 14.0589 42 24 42C33.9411 42 42 33.9411 42 24Z"/><path id="Vector_2" fill="white" fill-rule="evenodd" d="M23.46 32.9832V30.2765C25.3125 30.4377 27.1413 29.7706 28.4548 28.4545C30.5472 26.3618 30.9017 23.0953 29.3069 20.6027L20.6023 29.3065L18.6617 31.2469C18.2983 30.9784 17.9554 30.6831 17.636 30.3635C14.1213 26.8491 14.1213 21.1511 17.636 17.6365C19.455 15.8136 21.9694 14.8595 24.54 15.0168V17.7235C22.6875 17.5623 20.8587 18.2294 19.5452 19.5455C17.4527 21.6381 17.0983 24.9046 18.6931 27.3973L27.3976 18.6937L29.3383 16.7533C29.7017 17.0218 30.0446 17.3171 30.364 17.6367C33.8787 21.151 33.8787 26.8491 30.364 30.3636C28.545 32.1866 26.0306 33.1406 23.46 32.9832Z" clip-rule="evenodd"/></g></g></svg>

<svg xmlns="http://www.w3.org/2000/svg" fill="none" aria-hidden="true" viewBox="0 0 48 48"><path fill="#10284B" d="M42 24c0-9.941-8.059-18-18-18S6 14.059 6 24s8.059 18 18 18 18-8.059 18-18Z"/><path fill="#fff" fill-rule="evenodd" d="M23.46 32.983v-2.706a6.302 6.302 0 0 0 5.847-9.674l-8.705 8.703-1.94 1.94a8.999 8.999 0 0 1 5.878-16.23v2.708a6.301 6.301 0 0 0-5.847 9.674l8.705-8.704 1.94-1.94a8.999 8.999 0 0 1-5.878 16.23Z" clip-rule="evenodd"/></svg>
